public/seals/jhu.svg

<svg xml:space="preserve" viewBox="216 216 650.16 622.0799999999999" version="1.1" xmlns:xlink="http://www.w3.org/1999/xlink" xmlns="http://www.w3.org/2000/svg" style="max-height: 500px" width="650.16" height="622.0799999999999">
<desc>Created with Fabric.js 5.2.4</desc>
<defs>
</defs>
<g id="c80ffe30-3bd2-4917-b33d-d05e3b5e0933" transform="matrix(1 0 0 1 540 540)">
<rect height="1080" width="1080" ry="0" rx="0" y="-540" x="-540" style="stroke: none; stroke-width: 1; stroke-dasharray: none; stroke-linecap: butt; stroke-dashoffset: 0; stroke-linejoin: miter; stroke-miterlimit: 4; fill: rgb(255,255,255); fill-rule: nonzero; opacity: 1; visibility: hidden;"/>
</g>
<g id="edbc02cc-4b1a-47a8-b1bb-5214c79ca959" transform="matrix(1 0 0 1 540 540)">
</g>
<g transform="matrix(1 0 0 1 540 540)">
<g style="">
		<g transform="matrix(1 0 0 1 -116.3 72.8)">
<path stroke-linecap="round" d="M 490 400 C 418.55280992603485 400.61457780586977 347.3457926284013 408.3664143709206 277.44000000000005 423.1399999999999 C 308.12 617.58 429.61 712.26 490 745.6 Z M 399 439.15 C 367.6006864708939 439.15404578162406 339.2957764688297 458.0727169549312 327.28445117668934 487.08383501669925 C 315.273125884549 516.0949530784674 321.92095380091706 549.4849281186351 344.12791146221906 571.6833050389552 C 366.33486912352106 593.8816819592753 399.72741087885765 600.5166050414798 428.7338847161401 588.4940686204701 C 457.74035855342254 576.4715321994604 476.64808921862266 548.1593127477656 476.64 516.76 C 476.5903749312811 473.9060412570017 441.8539747213979 439.18306314920886 399 439.15 M 402.35 513.42 L 432.5 513.42 C 432.2829935221207 507.65043254327554 431.49922307392177 501.9161803752559 430.16 496.2999999999999 C 420.9662841460548 497.93685635894786 411.6569167978999 498.8397044853853 402.32 499 Z M 428.35 489.83 C 426.4534349642247 483.86159772271424 423.9398505572766 478.1071651537411 420.84999999999997 472.6599999999999 C 414.7343541628465 473.5979007856436 408.5652215384026 474.14567433757037 402.38 474.29999999999995 L 402.38 492.29999999999995 C 411.09706208846234 492.11925838139535 419.7882099755717 491.2835710845579 428.3800000000001 489.79999999999995 M 416.9 466.44 C 412.70495369732265 460.21709734891135 407.8132912819875 454.49338261601577 402.31999999999994 449.37999999999994 L 402.32 467.57 C 407.19766141139496 467.4735095273215 412.06571941763724 467.09621833753727 416.9 466.44 M 424.15999999999997 465.28 C 430.23619907936774 464.12258893797184 436.2241110109735 462.54207423727456 442.08 460.54999999999995 C 432.4795139369066 453.16682268937467 421.13800049122494 448.3829289219736 409.15 446.65999999999997 C 414.84672149514313 452.2716109570107 419.87973409151175 458.5192572599696 424.15 465.2799999999999 M 381 466.44 C 385.86839218287537 467.09050679983915 390.7694043685468 467.46776454982614 395.68 467.57 L 395.68 449.27 C 390.1456039285544 454.4125811600462 385.220010761369 460.1736461927829 381 466.44 M 388.75 446.67 C 376.8036035382027 448.4050151296186 365.50465356457744 453.184942762472 355.94 460.55 C 361.75839062770405 462.54598588931424 367.7140550197908 464.11678401741796 373.76 465.25 C 378.04344447563903 458.5109005358233 383.0754322343747 452.27794503200266 388.76 446.67 M 377.15999999999997 472.67 C 374.06490891141493 478.12199501482263 371.54150663947536 483.87923950777366 369.63 489.85 C 378.24142354428636 491.3390554020471 386.95267716798907 492.1780901908228 395.69000000000005 492.36 L 395.69 474.36 C 389.48380228256985 474.21029082155434 383.2939863432656 473.6557795177635 377.15999999999997 472.7 M 367.78 496.33 C 366.43230916595354 501.9547551104538 365.64843694692763 507.69980150203264 365.44 513.48 L 395.69 513.48 L 395.69 499 C 386.3287131551344 498.8444021136249 376.99518118057466 497.93479240488955 367.78 496.28 M 361.19 495 C 352.1571365990667 493.023778633488 343.29583993766886 490.3319507797426 334.69 486.94999999999993 C 330.8263811194209 495.2659824485743 328.63160846385034 504.25911436698794 328.23 513.42 L 358.71000000000004 513.42 C 358.9215765148835 507.2127654679944 359.7523634656128 501.0421623904003 361.19 495.00000000000006 M 328.19 520.11 C 328.5822776328973 529.2754208636748 330.77745683463877 538.2736167246832 334.65 546.59 C 343.25714010682697 543.224614351432 352.1184428213047 540.5495040980048 361.14999999999986 538.59 C 359.7116937858555 532.5344147994259 358.8809157636483 526.3504783921901 358.66999999999996 520.13 Z M 367.7 537.26 C 376.91043064547927 535.6195536770349 386.23616767485373 534.7100518943207 395.59 534.54 L 395.59 520.11 L 365.38 520.11 C 365.5953275022176 525.8908418197689 366.3858962101036 531.6358644215677 367.74 537.26 M 369.6 543.72 C 371.49813678054176 549.7085733425636 374.0220741013661 555.4804459407834 377.13 560.94 C 383.25274798282686 559.9762472046667 389.4333367184505 559.4250055066246 395.63 559.2900000000001 L 395.63 541.2900000000001 C 386.91303297794354 541.4570099301276 378.22135239607985 542.2860625394745 369.6299999999999 543.7700000000001 M 381 567.12 C 385.2251746110485 573.3824262558827 390.15028626551396 579.1429281024202 395.67999999999995 584.29 L 395.68 565.94 C 390.76980849999177 566.0838815785809 385.8701298997503 566.4777249538046 380.9999999999999 567.12 M 373.76 568.29 C 367.69799668622574 569.429012143098 361.72588512276127 571.0030829580905 355.89 573 C 365.4546535645774 580.365057237528 376.7536035382027 585.1449848703813 388.7 586.88 C 383.0129224558209 581.270662190355 377.9807303917376 575.0340988256011 373.7 568.29 M 416.87 567.0699999999999 C 412.06 566.4499999999999 407.18 566.0699999999999 402.31 565.9399999999999 L 402.31 584.1899999999999 C 407.8061070323609 579.0627724800245 412.6917961659664 573.3180610811696 416.87 567.0699999999999 M 409.14 586.91 C 421.12434300108123 585.150348069064 432.46175138151636 580.3627539411996 442.08 573 C 436.2257259187335 571.0000269976994 430.237489960738 569.416085120417 424.16 568.26 C 419.8851112955943 575.0265875386177 414.8526067149243 581.2836682339174 409.15999999999997 586.91 M 420.77 560.91 C 423.8519861830753 555.4409662650269 426.3747425664469 549.6751445707606 428.29999999999995 543.6999999999999 C 419.7101232798524 542.2064741376956 411.01744802813204 541.3806699887822 402.2999999999999 541.2299999999999 L 402.29999999999995 559.2299999999999 C 408.4757664167665 559.3682650948375 414.63574144344057 559.9127748179111 420.7399999999999 560.8599999999999 M 430.10999999999996 537.1999999999999 C 431.4470545634911 531.5732553105622 432.23078256377096 525.8292659068018 432.44999999999993 520.05 L 402.32 520.05 L 402.32 534.4799999999999 C 411.6474152524697 534.6485728144227 420.9466855625026 535.5581023089674 430.13 537.1999999999999 M 436.68 538.4999999999999 C 445.7369226968884 540.4622569977627 454.62459445645993 543.1372522602371 463.26 546.4999999999999 C 467.1379592669023 538.1845139440109 469.3398760889125 529.1865575478953 469.74 520.0199999999999 L 439.14 520.0199999999999 C 438.9301854370669 526.2360548302247 438.10617585766494 532.4161266757394 436.68 538.4699999999999 M 469.74 513.3299999999999 C 469.3134681779812 504.2153511193011 467.1123315678245 495.2715352326615 463.26 486.99999999999994 C 454.6275985778617 490.37145857371405 445.7392256359768 493.0466648767644 436.68 495 C 438.1055042663362 501.04383931428987 438.92951806555067 507.2138938596275 439.14 513.42 Z M 447.94 465.4599999999999 C 441.337193043292 467.9186156073322 434.55784868320836 469.87419571120245 427.65999999999997 471.30999999999995 C 430.6207871640785 476.77376601384987 433.0390103168781 482.5145339970889 434.88 488.44999999999993 C 443.4879309031136 486.6421576455973 451.9380334879215 484.1509323089602 460.15000000000003 480.99999999999994 C 456.80396390205306 475.3200482446089 452.69579230167693 470.12511216681963 447.94 465.56 M 337.81 481 C 345.9979615763195 484.1641401931645 354.42014641489897 486.685111756598 363.00000000000006 488.5400000000001 C 364.8567319219742 482.5975869467253 367.281249510486 476.8477296270087 370.24 471.37 C 363.3535097647712 469.9541711753614 356.586705116055 468.0083805105626 350 465.54999999999995 C 345.2455632745793 470.1149686712489 341.14356778726426 475.31397033482705 337.81 481.00000000000006 M 350 568 C 356.5671494949823 565.5495164897358 363.31391828352156 563.6104055396105 370.17999999999995 562.2 C 367.24178645747514 556.7096336302635 364.8374248711344 550.9498816407007 363 545 C 354.4353768270259 546.8547050817785 346.0269828998642 549.3688650154667 337.8500000000001 552.52 C 341.1579118742492 558.2216096921715 345.24758553567636 563.4321568756195 350 568 M 460.11 552.53 C 451.9071585659867 549.3719780187275 443.4719010378065 546.8544398028259 434.88 545 C 433.0280994957669 550.9475248753198 430.6103768269998 556.7038479606532 427.65999999999997 562.19 C 434.5589609936997 563.6038562546784 441.33895684885266 565.5462515169288 447.94 568 C 452.7079298070476 563.4347094101889 456.8173423852661 558.2281072328718 460.15 552.53" transform="translate(-383.72, -572.8)" style="stroke: none; stroke-width: 1; stroke-dasharray: none; stroke-linecap: butt; stroke-dashoffset: 0; stroke-linejoin: miter; stroke-miterlimit: 4; fill: rgb(0,45,116); fill-rule: evenodd; opacity: 1;"/>
</g>
		<g transform="matrix(1 0 0 1 0 -171.16)">
<path stroke-linecap="round" d="M 270.24 328.85 L 270.24 288.97 C 270.2553748306043 283.67491005760087 273.86342324813074 279.0659988941167 279 277.78 L 279.28 277.7 C 424.7093985509948 246.65360668026577 575.0521628508274 246.63316161814575 720.4900000000001 277.64000000000004 L 720.66 277.7 C 725.9919810927938 278.834709593092 729.800658971847 283.5486263546804 729.79 289 L 729.79 328.88 C 729.8141393271961 353.7299952148119 728.334769948944 378.55868895591186 725.3600000000004 403.23000000000013 C 576.7553753466159 372.05793186227646 423.2977040136117 372.07495774335473 274.69999999999976 403.2800000000002 C 271.71721265669674 378.5925707765709 270.2344905212139 353.7469566144246 270.26000000000005 328.8799999999998 M 500 288.07 C 465.31 275.31 415.63 272.54 385.45 278.86 L 372.28999999999996 289.09000000000003 L 368.77 289.62 C 367.7037341809856 289.7801360043178 366.77249306211905 290.4268312257529 366.25 291.37 L 329.54 372.52 C 328.99464613973055 373.3914851409464 329.0383949960823 374.507978896222 329.65026885704947 375.33411905507296 C 330.2621427180166 376.16025921392395 331.317383506946 376.52759985336 332.31 376.26 C 388.14 365.65 447.4 362.38 500 362.38 L 500 362.38 C 552.57 362.38 611.85 365.65 667.72 376.26 C 668.7141483948703 376.53335079860784 669.7741396454867 376.168346902431 670.3892203038849 375.34086429005345 C 671.0043009622832 374.5133816776759 671.048293400246 373.3931701079225 670.5 372.52 L 633.8 291.37 C 633.2795781227074 290.42935884419563 632.352573475708 289.78304086321987 631.29 289.62 L 627.76 289.09000000000003 L 614.6 278.86 C 584.4200000000001 272.54 534.73 275.31 500.05 288.07 Z" transform="translate(-500.02, -328.84)" style="stroke: none; stroke-width: 1; stroke-dasharray: none; stroke-linecap: butt; stroke-dashoffset: 0; stroke-linejoin: miter; stroke-miterlimit: 4; fill: rgb(0,45,116); fill-rule: nonzero; opacity: 1;"/>
</g>
		<g transform="matrix(1 0 0 1 -79.34 -173.35)">
<path stroke-linecap="round" d="M 497.19 351.28 C 451.95 336.46 400.09000000000003 334.21999999999997 363.19 341.19 L 381.44 289.31 L 369.32 298.49 L 344.16 364 C 377.73 358.55 453.55 352.41 491.08000000000004 352.93 C 492.96401995331536 351.92082530051766 495.0540863610691 351.3564047485056 497.19000000000005 351.28000000000003" transform="translate(-420.68, -326.65)" style="stroke: none; stroke-width: 1; stroke-dasharray: none; stroke-linecap: butt; stroke-dashoffset: 0; stroke-linejoin: miter; stroke-miterlimit: 4; fill: rgb(0,45,116); fill-rule: nonzero; opacity: 1;"/>
</g>
		<g transform="matrix(1 0 0 1 78.75 -173.35)">
<path stroke-linecap="round" d="M 502.24 351.28 C 547.48 336.46 599.41 334.21999999999997 636.32 341.19 L 618 289.31 L 630.11 298.49 L 655.3 364 C 621.74 358.55 545.92 352.41 508.34999999999997 352.93 C 506.46906519407963 351.91307247141066 504.377150564927 351.3481528088735 502.23999999999995 351.28000000000003" transform="translate(-578.77, -326.65)" style="stroke: none; stroke-width: 1; stroke-dasharray: none; stroke-linecap: butt; stroke-dashoffset: 0; stroke-linejoin: miter; stroke-miterlimit: 4; fill: rgb(0,45,116); fill-rule: nonzero; opacity: 1;"/>
</g>
		<g transform="matrix(1 0 0 1 31.25 145.96)">
<path stroke-linecap="round" d="M 510 546.34 L 510 745.58 C 524.8137315851768 737.3191492792091 539.0257328205523 728.0227026681546 552.53 717.76 L 552.53 574.63 Z" transform="translate(-531.26, -645.96)" style="stroke: none; stroke-width: 1; stroke-dasharray: none; stroke-linecap: butt; stroke-dashoffset: 0; stroke-linejoin: miter; stroke-miterlimit: 4; fill: rgb(0,45,116); fill-rule: nonzero; opacity: 1;"/>
</g>
		<g transform="matrix(1 0 0 1 31.29 -62.21)">
<path stroke-linecap="round" d="M 552.57 401.29 C 538.4200000000001 400.61 524.22 400.13 510.0400000000001 400 L 510.0400000000001 447.29 L 552.57 475.58000000000004 Z" transform="translate(-531.31, -437.79)" style="stroke: none; stroke-width: 1; stroke-dasharray: none; stroke-linecap: butt; stroke-dashoffset: 0; stroke-linejoin: miter; stroke-miterlimit: 4; fill: rgb(0,45,116); fill-rule: nonzero; opacity: 1;"/>
</g>
		<g transform="matrix(1 0 0 1 116.36 -31.82)">
<path stroke-linecap="round" d="M 637.64 532.23 L 637.64 408.83 C 623.5 407.03 609.34 405.39 595.12 404.13 L 595.12 503.89 Z" transform="translate(-616.38, -468.18)" style="stroke: none; stroke-width: 1; stroke-dasharray: none; stroke-linecap: butt; stroke-dashoffset: 0; stroke-linejoin: miter; stroke-miterlimit: 4; fill: rgb(0,45,116); fill-rule: nonzero; opacity: 1;"/>
</g>
		<g transform="matrix(1 0 0 1 116.36 141.91)">
<path stroke-linecap="round" d="M 595.12 603 L 595.12 680.8199999999999 C 610.5367866529662 665.4694257754878 624.7519167103228 648.9575425785724 637.6400000000001 631.4299999999998 L 637.64 631.31 Z" transform="translate(-616.38, -641.91)" style="stroke: none; stroke-width: 1; stroke-dasharray: none; stroke-linecap: butt; stroke-dashoffset: 0; stroke-linejoin: miter; stroke-miterlimit: 4; fill: rgb(0,45,116); fill-rule: nonzero; opacity: 1;"/>
</g>
		<g transform="matrix(1 0 0 1 137.66 131.33)">
<path stroke-linecap="round" d="M 637.64 631.39 C 637.64 631.39 637.6899999999999 631.39 637.71 631.33 L 637.64 631.2800000000001 Z" transform="translate(-637.67, -631.34)" style="stroke: none; stroke-width: 1; stroke-dasharray: none; stroke-linecap: butt; stroke-dashoffset: 0; stroke-linejoin: miter; stroke-miterlimit: 4; fill: rgb(0,45,116); fill-rule: nonzero; opacity: 1;"/>
</g>
		<g transform="matrix(1 0 0 1 201.37 -12.16)">
<path stroke-linecap="round" d="M 680.27 560.6 C 699.05 521.6 714.27 476.11 722.6 423.09000000000003 Q 701.48 418.61 680.1700000000001 415.09000000000003 L 680.1700000000001 560.52 Z" transform="translate(-701.38, -487.85)" style="stroke: none; stroke-width: 1; stroke-dasharray: none; stroke-linecap: butt; stroke-dashoffset: 0; stroke-linejoin: miter; stroke-miterlimit: 4; fill: rgb(0,45,116); fill-rule: nonzero; opacity: 1;"/>
</g>
		<g transform="matrix(1 0 0 1 73.83 39.28)">
<polygon points="-21.27,-63.68 -21.27,35.36 21.27,63.67 21.27,-35.4 -21.27,-63.68" style="stroke: none; stroke-width: 1; stroke-dasharray: none; stroke-linecap: butt; stroke-dashoffset: 0; stroke-linejoin: miter; stroke-miterlimit: 4; fill: rgb(0,45,116); fill-rule: nonzero; opacity: 1;"/>
</g>
		<g transform="matrix(1 0 0 1 158.89 81.76)">
<path stroke-linecap="round" d="M 680.17 560.52 L 637.64 532.24 L 637.64 631.24 L 637.71 631.29 C 654.0102523810963 609.1446845699351 668.2242975264373 585.5371842484691 680.1700000000001 560.7699999999999 Z" transform="translate(-658.9, -581.76)" style="stroke: none; stroke-width: 1; stroke-dasharray: none; stroke-linecap: butt; stroke-dashoffset: 0; stroke-linejoin: miter; stroke-miterlimit: 4; fill: rgb(0,45,116); fill-rule: nonzero; opacity: 1;"/>
</g>
		<g transform="matrix(1 0 0 1 180.2 60.68)">
<path stroke-linecap="round" d="M 680.17 560.83 C 680.1911236550865 560.7454426537005 680.224833333724 560.6645394249707 680.27 560.59 L 680.17 560.5300000000001 Z" transform="translate(-680.22, -560.68)" style="stroke: none; stroke-width: 1; stroke-dasharray: none; stroke-linecap: butt; stroke-dashoffset: 0; stroke-linejoin: miter; stroke-miterlimit: 4; fill: rgb(0,45,116); fill-rule: nonzero; opacity: 1;"/>
</g>
</g>
</g>
</svg>

<svg id="Layer_1" data-name="Layer 1" xmlns="http://www.w3.org/2000/svg" viewBox="0 0 1000 1000"><defs><style>.cls-1,.cls-2{fill:#002d74;}.cls-1{fill-rule:evenodd;}</style></defs><path class="cls-1" d="M490,400a1072.63,1072.63,0,0,0-212.56,23.14C308.12,617.58,429.61,712.26,490,745.6Zm-91,39.15a77.63,77.63,0,1,0,77.64,77.61A77.7,77.7,0,0,0,399,439.15m3.35,74.27h30.15a88.08,88.08,0,0,0-2.34-17.12A176.07,176.07,0,0,1,402.32,499Zm26-23.59a90.11,90.11,0,0,0-7.5-17.17,145.84,145.84,0,0,1-18.47,1.64v18a174,174,0,0,0,26-2.5M416.9,466.44a98.62,98.62,0,0,0-14.58-17.06v18.19a127.08,127.08,0,0,0,14.58-1.13m7.26-1.16a132.8,132.8,0,0,0,17.92-4.73,70.46,70.46,0,0,0-32.93-13.89,104.38,104.38,0,0,1,15,18.62M381,466.44a131.51,131.51,0,0,0,14.68,1.13v-18.3A98.69,98.69,0,0,0,381,466.44m7.75-19.77a70.35,70.35,0,0,0-32.81,13.88,127.05,127.05,0,0,0,17.82,4.7,105.89,105.89,0,0,1,15-18.58m-11.6,26a91,91,0,0,0-7.53,17.18,174.23,174.23,0,0,0,26.06,2.51v-18a142.71,142.71,0,0,1-18.53-1.66m-9.38,23.63a87.07,87.07,0,0,0-2.34,17.15h30.25V499a174.3,174.3,0,0,1-27.91-2.72M361.19,495a174.31,174.31,0,0,1-26.5-8.05,70.11,70.11,0,0,0-6.46,26.47h30.48A93.31,93.31,0,0,1,361.19,495m-33,25.11a69.8,69.8,0,0,0,6.46,26.48,174.2,174.2,0,0,1,26.5-8,93.61,93.61,0,0,1-2.48-18.46Zm39.51,17.15a177.45,177.45,0,0,1,27.89-2.72V520.11H365.38a87.12,87.12,0,0,0,2.36,17.15m1.86,6.46a89.42,89.42,0,0,0,7.53,17.22,138.36,138.36,0,0,1,18.5-1.65v-18a172.13,172.13,0,0,0-26,2.48M381,567.12a99.43,99.43,0,0,0,14.68,17.17V565.94A144.69,144.69,0,0,0,381,567.12m-7.24,1.17A128.48,128.48,0,0,0,355.89,573a70.35,70.35,0,0,0,32.81,13.88,105.59,105.59,0,0,1-15-18.59m43.17-1.22c-4.81-.62-9.69-1-14.56-1.13v18.25a97.64,97.64,0,0,0,14.56-17.12m-7.73,19.84A71.21,71.21,0,0,0,442.08,573a131.37,131.37,0,0,0-17.92-4.74,105.29,105.29,0,0,1-15,18.65m11.61-26a93.4,93.4,0,0,0,7.53-17.21,168.81,168.81,0,0,0-26-2.47v18a140.81,140.81,0,0,1,18.44,1.63m9.37-23.66a88.73,88.73,0,0,0,2.34-17.15H402.32v14.43a176.09,176.09,0,0,1,27.81,2.72m6.55,1.3a175.88,175.88,0,0,1,26.58,8,69.86,69.86,0,0,0,6.48-26.48h-30.6a94.34,94.34,0,0,1-2.46,18.45m33.06-25.14A70.13,70.13,0,0,0,463.26,487,173.7,173.7,0,0,1,436.68,495a94.14,94.14,0,0,1,2.46,18.42Zm-21.8-47.87a139.7,139.7,0,0,1-20.28,5.85,95.12,95.12,0,0,1,7.22,17.14A165.49,165.49,0,0,0,460.15,481a72.2,72.2,0,0,0-12.21-15.44M337.81,481A168.89,168.89,0,0,0,363,488.54a97,97,0,0,1,7.24-17.17A136.49,136.49,0,0,1,350,465.55,71.67,71.67,0,0,0,337.81,481M350,568a136,136,0,0,1,20.18-5.8A97.3,97.3,0,0,1,363,545a170,170,0,0,0-25.15,7.52A70.64,70.64,0,0,0,350,568m110.11-15.47A170.12,170.12,0,0,0,434.88,545a97.48,97.48,0,0,1-7.22,17.19A137.34,137.34,0,0,1,447.94,568a71.15,71.15,0,0,0,12.21-15.47"/><path class="cls-2" d="M270.24,328.85l0-39.88A11.57,11.57,0,0,1,279,277.78l.28-.08a1057.33,1057.33,0,0,1,441.21-.06l.17.06A11.53,11.53,0,0,1,729.79,289l0,39.88a616.09,616.09,0,0,1-4.43,74.35,1097,1097,0,0,0-450.66.05,615,615,0,0,1-4.44-74.4M500,288.07c-34.69-12.76-84.37-15.53-114.55-9.21l-13.16,10.23-3.52.53a3.47,3.47,0,0,0-2.52,1.75l-36.71,81.15a2.5,2.5,0,0,0,2.77,3.74C388.14,365.65,447.4,362.38,500,362.38h0c52.57,0,111.85,3.27,167.72,13.88a2.5,2.5,0,0,0,2.78-3.74L633.8,291.37a3.47,3.47,0,0,0-2.51-1.75l-3.53-.53L614.6,278.86c-30.18-6.32-79.87-3.55-114.55,9.21Z"/><path class="cls-2" d="M497.19,351.28c-45.24-14.82-97.1-17.06-134-10.09l18.25-51.88-12.12,9.18L344.16,364c33.57-5.45,109.39-11.59,146.92-11.07a14,14,0,0,1,6.11-1.65"/><path class="cls-2" d="M502.24,351.28c45.24-14.82,97.17-17.06,134.08-10.09L618,289.31l12.11,9.18L655.3,364c-33.56-5.45-109.38-11.59-146.95-11.07a13.77,13.77,0,0,0-6.11-1.65"/><path class="cls-2" d="M510,546.34V745.58a360.35,360.35,0,0,0,42.53-27.82V574.63Z"/><path class="cls-2" d="M552.57,401.29c-14.15-.68-28.35-1.16-42.53-1.29v47.29l42.53,28.29Z"/><path class="cls-2" d="M637.64,532.23V408.83c-14.14-1.8-28.3-3.44-42.52-4.7v99.76Z"/><path class="cls-2" d="M595.12,603v77.82a424.93,424.93,0,0,0,42.52-49.39v-.12Z"/><path class="cls-2" d="M637.64,631.39s.05,0,.07-.06l-.07-.05Z"/><path class="cls-2" d="M680.27,560.6c18.78-39,34-84.49,42.33-137.51q-21.12-4.48-42.43-8V560.52Z"/><polygon class="cls-2" points="552.57 475.61 552.57 574.65 595.12 602.96 595.12 503.89 552.57 475.61"/><path class="cls-2" d="M680.17,560.52l-42.53-28.28v99l.07.05a445.31,445.31,0,0,0,42.46-70.52Z"/><path class="cls-2" d="M680.17,560.83a.87.87,0,0,1,.1-.24l-.1-.06Z"/></svg>
